dist/img/home/about/3.svg

<svg width="30" height="29" viewBox="0 0 30 29" fill="none" xmlns="http://www.w3.org/2000/svg">
<path d="M11.1464 15.8735C10.8229 15.8735 10.5605 16.1358 10.5605 16.4595V17.1959H4.97227V16.4595C4.97227 16.1358 4.70988 15.8735 4.38633 15.8735C4.06277 15.8735 3.80039 16.1358 3.80039 16.4595V17.7818C3.80039 18.1054 4.06277 18.3677 4.38633 18.3677H11.1464C11.47 18.3677 11.7323 18.1054 11.7323 17.7818V16.4595C11.7323 16.1358 11.47 15.8735 11.1464 15.8735Z" fill="#E0191C"/>
<path d="M28.2824 13.4844H22.7036C22.7615 13.3124 22.793 13.1283 22.793 12.937V1.71932C22.793 0.771269 22.0217 0 21.0737 0H8.92635C7.9783 0 7.20703 0.771328 7.20703 1.71932V12.937C7.20703 13.1283 7.23844 13.3124 7.29639 13.4844H1.71932C0.77127 13.4844 0 14.2557 0 15.2037V26.4214C0 27.3694 0.77127 28.1407 1.71932 28.1407H13.8666C14.3004 28.1407 14.6971 27.9792 14.9999 27.7132C15.3024 27.9792 15.6986 28.1407 16.1316 28.1407H28.2824C29.2294 28.1407 30 27.3686 30 26.4196V15.2055C30 14.2565 29.2295 13.4844 28.2824 13.4844ZM8.37891 12.937V1.71932C8.37891 1.41744 8.62447 1.17188 8.92635 1.17188H21.0737C21.3755 1.17188 21.6211 1.41744 21.6211 1.71932V12.937C21.6211 13.2388 21.3755 13.4844 21.0737 13.4844H18.9537V9.07664C18.9537 8.75303 18.6913 8.4907 18.3677 8.4907H11.5649C11.2413 8.4907 10.9789 8.75303 10.9789 9.07664V13.4844H8.92635C8.62447 13.4844 8.37891 13.2388 8.37891 12.937ZM12.1508 13.4844V9.66258H17.7819V13.4844H12.1508ZM4.94379 26.9658V22.9414H10.5748V26.9658H4.94379ZM14.4141 26.4214C14.4141 26.7233 14.1685 26.9688 13.8666 26.9688H11.7466V22.3555C11.7466 22.0319 11.4843 21.7696 11.1607 21.7696H4.35785C4.0343 21.7696 3.77191 22.0319 3.77191 22.3555V26.9688H1.71932C1.4175 26.9688 1.17188 26.7233 1.17188 26.4214V15.2037C1.17188 14.9019 1.41744 14.6563 1.71932 14.6563H13.8666C14.1684 14.6563 14.4141 14.9019 14.4141 15.2037V26.4214ZM19.3579 22.9385H24.9889V26.9689H19.3579V22.9385ZM28.8281 26.4196C28.8281 26.7224 28.5833 26.9688 28.2824 26.9688H26.1607V22.3526C26.1607 22.029 25.8983 21.7666 25.5748 21.7666H18.7719C18.4484 21.7666 18.186 22.029 18.186 22.3526V26.9689H16.1317C15.8307 26.9689 15.5859 26.7225 15.5859 26.4197V15.2055C15.5859 14.9027 15.8307 14.6563 16.1317 14.6563H28.2824C28.5834 14.6563 28.8282 14.9027 28.8282 15.2055V26.4196H28.8281Z" fill="#E0191C"/>
<path d="M25.5605 15.8735C25.2369 15.8735 24.9745 16.1358 24.9745 16.4595V17.1959H19.3863V16.4595C19.3863 16.1358 19.1239 15.8735 18.8004 15.8735C18.4768 15.8735 18.2145 16.1358 18.2145 16.4595V17.7818C18.2145 18.1054 18.4768 18.3677 18.8004 18.3677H25.5605C25.8841 18.3677 26.1464 18.1054 26.1464 17.7818V16.4595C26.1464 16.1358 25.8841 15.8735 25.5605 15.8735Z" fill="#E0191C"/>
<path d="M11.5934 4.88338H18.3534C18.677 4.88338 18.9394 4.62105 18.9394 4.29744V2.97504C18.9394 2.65143 18.677 2.3891 18.3534 2.3891C18.0299 2.3891 17.7675 2.65143 17.7675 2.97504V3.71145H12.1793V2.97504C12.1793 2.65143 11.9169 2.3891 11.5934 2.3891C11.2698 2.3891 11.0074 2.65143 11.0074 2.97504V4.29738C11.0074 4.621 11.2698 4.88338 11.5934 4.88338Z" fill="#E0191C"/>
</svg>

<svg width="30" height="29" viewBox="0 0 30 29" fill="none" xmlns="http://www.w3.org/2000/svg"><path d="M11.146 15.873a.586.586 0 00-.586.586v.737H4.972v-.737a.586.586 0 10-1.172 0v1.323c0 .323.263.586.586.586h6.76a.586.586 0 00.586-.586v-1.323a.586.586 0 00-.586-.585z" fill="#E0191C"/><path d="M28.282 13.484h-5.578c.058-.172.089-.356.089-.547V1.719c0-.948-.771-1.719-1.72-1.719H8.927c-.948 0-1.719.771-1.719 1.72v11.217c0 .191.031.375.09.547h-5.58c-.948 0-1.719.772-1.719 1.72V26.42c0 .948.771 1.72 1.72 1.72h12.147c.433 0 .83-.162 1.133-.428.302.266.699.428 1.132.428h12.15c.947 0 1.718-.772 1.718-1.721V15.205c0-.948-.77-1.72-1.718-1.72zM8.38 12.937V1.719c0-.302.245-.547.547-.547h12.148c.301 0 .547.245.547.547v11.218a.548.548 0 01-.547.547h-2.12V9.077a.586.586 0 00-.586-.586h-6.803a.586.586 0 00-.586.586v4.407H8.926a.548.548 0 01-.547-.547zm3.772.547V9.663h5.63v3.821h-5.63zM4.944 26.966V22.94h5.63v4.025h-5.63zm9.47-.545a.548.548 0 01-.547.548h-2.12v-4.614a.586.586 0 00-.586-.585H4.358a.586.586 0 00-.586.585v4.614H1.719a.548.548 0 01-.547-.548V15.204c0-.302.245-.548.547-.548h12.148c.301 0 .547.246.547.548V26.42zm4.944-3.482h5.63v4.03h-5.63v-4.03zm9.47 3.48c0 .303-.245.55-.546.55h-2.121v-4.616a.586.586 0 00-.586-.586h-6.803a.586.586 0 00-.586.586v4.616h-2.054a.548.548 0 01-.546-.55V15.207c0-.303.245-.55.546-.55h12.15c.301 0 .546.247.546.55V26.42z" fill="#E0191C"/><path d="M25.56 15.873a.586.586 0 00-.585.586v.737h-5.589v-.737a.586.586 0 10-1.171 0v1.323c0 .323.262.586.585.586h6.76a.586.586 0 00.586-.586v-1.323a.586.586 0 00-.585-.585zM11.593 4.883h6.76a.586.586 0 00.586-.586V2.975a.586.586 0 00-1.172 0v.736H12.18v-.736a.586.586 0 00-1.172 0v1.322c0 .324.263.586.586.586z" fill="#E0191C"/></svg>
